svgs/sharp-light/laptop-slash.svg

<svg xmlns="http://www.w3.org/2000/svg" viewBox="0 0 640 512"><!--! Font Awesome Pro 6.6.0 by @fontawesome - https://fontawesome.com License - https://fontawesome.com/license (Commercial License) Copyright 2024 Fonticons, Inc. --><path d="M32.5 10L19.9 .1 .1 25.3l12.6 9.9L607.8 502.2l12.6 9.9 19.8-25.2-12.6-9.9L32.5 10zM500.3 480l-40.5-32L61.3 448 32 418.7l0-2.7 387.2 0-40.5-32L32 384 0 384l0 32 0 16 48 48 452.3 0zM544 351.5l.7 .5 31.3 0 0-288 0-32-32 0L139.4 32l40.5 32L544 64l0 287.5zM64 135.6L64 352l32 0 0-191.2L64 135.6z"/></svg>

<svg xmlns="http://www.w3.org/2000/svg" viewBox="0 0 640 512"><!--! Font Awesome Pro 6.5.2 by @fontawesome - https://fontawesome.com License - https://fontawesome.com/license (Commercial License) Copyright 2024 Fonticons, Inc. --><path d="M40.4 18L27.8 8.1 8.1 33.4l12.6 9.8L599.8 494.3l12.6 9.8 19.7-25.2L619.5 469 40.4 18zM500.3 480l-40.5-32H61.3L32 418.7V416H419.2l-40.5-32H32 0v32 16l48 48H500.3zM544 351.5l.7 .5H576V64 32H544 139.4l40.5 32H544V351.5zM64 135.6V352H96V160.8L64 135.6z"/></svg>
